packages/core/src/svgs/dyp.svg

<svg width="24" height="24" viewBox="0 0 24 24" fill="none" xmlns="http://www.w3.org/2000/svg">
<g clip-path="url(#clip0_31_9650)">
<path d="M0 0H24V24H0V0Z" fill="#F0F3FA"/>
<path d="M15.3858 16.4142C16.2432 15.8018 16.9307 14.9812 17.3836 14.0298C17.8364 13.0783 18.0397 12.0273 17.9744 10.9757C18.3073 10.3752 18.4639 9.69281 18.4258 9.00724C18.3878 8.32167 18.1568 7.6608 17.7594 7.10083C17.3621 6.54086 16.8146 6.10459 16.18 5.84232C15.5454 5.58005 14.8497 5.50247 14.1729 5.61851C13.3679 5.28315 12.5014 5.12097 11.6296 5.14252C10.7578 5.16407 9.90031 5.36887 9.11287 5.74359C8.32543 6.11831 7.62568 6.65456 7.0591 7.31749C6.49253 7.98042 6.07183 8.75517 5.82435 9.59136C5.36499 10.0362 5.0308 10.594 4.85537 11.2089C4.67994 11.8238 4.66944 12.474 4.82493 13.0942C4.98042 13.7145 5.29642 14.2828 5.74117 14.7422C6.18593 15.2016 6.74377 15.5359 7.35864 15.7114C7.82112 16.1861 8.35643 16.584 8.94435 16.8899C8.89804 16.9476 8.8687 17.0171 8.85962 17.0905C8.85054 17.1639 8.86207 17.2384 8.89292 17.3057C9.20252 17.9687 9.71615 18.5153 10.3587 18.8655C11.0012 19.2158 11.7389 19.3512 12.464 19.2521C13.189 19.1529 13.8633 18.8244 14.3883 18.3146C14.9132 17.8048 15.2612 17.1403 15.3815 16.4185L15.3858 16.4142Z" fill="#EE1A20"/>
<path d="M18 9C17.9997 9.7584 17.7123 10.4886 17.1954 11.0436C16.6786 11.5986 15.9707 11.9373 15.2143 11.9914V11.1343C15.7224 11.084 16.1959 10.8539 16.5494 10.4855C16.9029 10.1171 17.1133 9.63449 17.1426 9.12471C17.1719 8.61493 17.0181 8.11145 16.7091 7.70497C16.4001 7.29848 15.956 7.0157 15.457 6.90758C14.958 6.79945 14.4367 6.87308 13.9871 7.11521C13.5376 7.35733 13.1893 7.75204 13.0049 8.22822C12.8206 8.7044 12.8123 9.23076 12.9817 9.71248C13.151 10.1942 13.4868 10.5996 13.9285 10.8557V11.8029C13.5249 11.6485 13.1595 11.4087 12.8571 11.1V13.7143H12V9C12 8.20435 12.316 7.44129 12.8786 6.87868C13.4413 6.31607 14.2043 6 15 6C15.7956 6 16.5587 6.31607 17.1213 6.87868C17.6839 7.44129 18 8.20435 18 9ZM14.1 11.8629H14.1343V10.4486L14.1428 10.4571V9.42857H15V15.8571C14.9998 16.5362 14.7694 17.195 14.3463 17.7261C13.9231 18.2571 13.3324 18.6289 12.6705 18.7807C12.0087 18.9325 11.315 18.8553 10.7027 18.5616C10.0905 18.268 9.59594 17.7754 9.29997 17.1643L9.95139 16.4871C10.0949 16.9555 10.3946 17.3605 10.8005 17.6348C11.2064 17.909 11.694 18.0359 12.1821 17.9943C12.6702 17.9527 13.1293 17.7452 13.483 17.4062C13.8366 17.0672 14.0634 16.6173 14.1257 16.1314H14.1343V16.0714L14.1428 15.8571V15.8529C14.1428 15.7671 14.1385 15.6814 14.1257 15.5957L14.1171 14.8543C13.5505 15.4551 12.7739 15.8141 11.9491 15.8564C11.1244 15.8987 10.3151 15.6211 9.68997 15.0814C9.2022 15.3001 8.66775 15.3943 8.13462 15.3553C7.60148 15.3164 7.08637 15.1457 6.63555 14.8584C6.18472 14.5712 5.81231 14.1765 5.55177 13.7097C5.29122 13.2429 5.1507 12.7188 5.14282 12.1843C5.14282 10.4271 6.58282 9 8.35711 9V9.85714C8.01459 9.85704 7.67617 9.93158 7.3654 10.0756C7.05463 10.2196 6.77897 10.4296 6.55762 10.691C6.33627 10.9523 6.17454 11.2588 6.08369 11.5891C5.99284 11.9193 5.97505 12.2654 6.03157 12.6032C6.08808 12.941 6.21754 13.2625 6.41092 13.5452C6.60431 13.8279 6.85699 14.065 7.15136 14.2401C7.44573 14.4152 7.77472 14.5241 8.11544 14.5591C8.45616 14.5941 8.80042 14.5544 9.12425 14.4429C8.72884 13.8641 8.53459 13.1714 8.57139 12.4714V8.57143H9.42854V12.5443C9.40096 13.0726 9.55525 13.5945 9.86568 14.0229C10.1513 13.7861 10.3768 13.4851 10.5239 13.1445C10.671 12.804 10.7355 12.4334 10.7121 12.0632C10.6887 11.693 10.578 11.3335 10.3892 11.0142C10.2004 10.6948 9.9388 10.4247 9.62568 10.2257V9.25714C10.0376 9.43302 10.4083 9.69283 10.7143 10.02V7.28571H11.5714V12H11.5671C11.5935 12.4888 11.5066 12.9771 11.3134 13.4268C11.1201 13.8765 10.8256 14.2756 10.4528 14.5929C10.8052 14.8294 11.2147 14.9669 11.6385 14.9911C12.0622 15.0153 12.4847 14.9253 12.8618 14.7304C13.2388 14.5355 13.5566 14.243 13.782 13.8833C14.0073 13.5236 14.1319 13.11 14.1428 12.6857V12.66C14.1428 12.6043 14.1428 12.5486 14.1343 12.4929V11.8757L14.1 11.8629Z" fill="#FFFCFF"/>
</g>
<defs>
<clipPath id="clip0_31_9650">
<rect width="24" height="24" fill="white"/>
</clipPath>
</defs>
</svg>

<svg xmlns="http://www.w3.org/2000/svg" width="24" height="24" fill="none" viewBox="0 0 24 24"><g clip-path="url(#a)"><path fill="#F0F3FA" d="M0 0h24v24H0z"/><path fill="#EE1A20" d="M15.386 16.414a6.21 6.21 0 0 0 2.588-5.438 3.643 3.643 0 0 0-3.801-5.357A6.214 6.214 0 0 0 5.824 9.59a3.643 3.643 0 0 0 1.535 6.12c.462.475.997.873 1.585 1.179a.4.4 0 0 0-.051.416 3.429 3.429 0 0 0 6.489-.887z"/><path fill="#FFFCFF" d="M18 9a3 3 0 0 1-2.786 2.991v-.857a2.143 2.143 0 1 0-1.286-.278v.947a3 3 0 0 1-1.07-.703v2.614H12V9a3 3 0 1 1 6 0m-3.9 2.863h.034v-1.414l.009.008V9.43H15v6.428a3 3 0 0 1-5.7 1.307l.651-.677a2.143 2.143 0 0 0 4.175-.356h.008v-.06l.009-.214v-.004q0-.13-.017-.257l-.009-.742a3.206 3.206 0 0 1-4.427.227 3.226 3.226 0 0 1-4.547-2.897C5.143 10.427 6.583 9 8.357 9v.857a2.357 2.357 0 1 0 .767 4.586 3.2 3.2 0 0 1-.553-1.972v-3.9h.858v3.973c-.028.529.126 1.05.437 1.479a2.353 2.353 0 0 0-.24-3.797v-.969c.412.176.782.436 1.088.763V7.286h.857V12h-.004a3.18 3.18 0 0 1-1.114 2.593 2.37 2.37 0 0 0 3.69-1.907v-.026c0-.056 0-.111-.009-.167v-.617z"/></g><defs><clipPath id="a"><path fill="#fff" d="M0 0h24v24H0z"/></clipPath></defs></svg>
